static/img/kroki/f74065c5b9b019b3203b93608aff3812.svg

<?xml version="1.0" encoding="us-ascii" standalone="no"?><svg xmlns="http://www.w3.org/2000/svg" xmlns:xlink="http://www.w3.org/1999/xlink" contentStyleType="text/css" height="374px" preserveAspectRatio="none" style="width:397px;height:374px;" version="1.1" viewBox="0 0 397 374" width="397px" zoomAndPan="magnify"><defs/><g><!--class gcp_region_quota--><g id="elem_gcp_region_quota"><rect codeLine="23" fill="#3D176E" height="39.7891" id="gcp_region_quota" rx="2.5" ry="2.5" style="stroke:#000D19;stroke-width:0.5;" width="189" x="91.5" y="328.58"/><ellipse cx="106.5" cy="348.4745" fill="#ADD1B2" rx="11" ry="11" style="stroke:#181818;stroke-width:1.0;"/><path d="M109.4688,354.1152 Q108.8906,354.412 108.25,354.5527 Q107.6094,354.7089 106.9063,354.7089 Q104.4063,354.7089 103.0781,353.0683 Q101.7656,351.412 101.7656,348.287 Q101.7656,345.162 103.0781,343.5058 Q104.4063,341.8495 106.9063,341.8495 Q107.6094,341.8495 108.25,342.0058 Q108.9063,342.162 109.4688,342.4589 L109.4688,345.1777 Q108.8438,344.5995 108.25,344.3339 Q107.6563,344.0527 107.0313,344.0527 Q105.6875,344.0527 105,345.1308 Q104.3125,346.1933 104.3125,348.287 Q104.3125,350.3808 105,351.4589 Q105.6875,352.5214 107.0313,352.5214 Q107.6563,352.5214 108.25,352.2558 Q108.8438,351.9745 109.4688,351.3964 L109.4688,354.1152 Z " fill="#000000"/><text fill="#D9B8FF" font-family="Helvetica" font-size="17" lengthAdjust="spacing" textLength="147" x="125.5" y="354.3598">gcp_region_quota</text></g><!--class gcp_resource--><g id="elem_gcp_resource"><rect codeLine="26" fill="#3D176E" height="39.7891" id="gcp_resource" rx="2.5" ry="2.5" style="stroke:#000D19;stroke-width:0.5;" width="150" x="7" y="167.79"/><ellipse cx="22" cy="187.6845" fill="#ADD1B2" rx="11" ry="11" style="stroke:#181818;stroke-width:1.0;"/><path d="M24.9688,193.3252 Q24.3906,193.622 23.75,193.7627 Q23.1094,193.9189 22.4063,193.9189 Q19.9063,193.9189 18.5781,192.2783 Q17.2656,190.622 17.2656,187.497 Q17.2656,184.372 18.5781,182.7158 Q19.9063,181.0595 22.4063,181.0595 Q23.1094,181.0595 23.75,181.2158 Q24.4063,181.372 24.9688,181.6689 L24.9688,184.3877 Q24.3438,183.8095 23.75,183.5439 Q23.1563,183.2627 22.5313,183.2627 Q21.1875,183.2627 20.5,184.3408 Q19.8125,185.4033 19.8125,187.497 Q19.8125,189.5908 20.5,190.6689 Q21.1875,191.7314 22.5313,191.7314 Q23.1563,191.7314 23.75,191.4658 Q24.3438,191.1845 24.9688,190.6064 L24.9688,193.3252 Z " fill="#000000"/><text fill="#D9B8FF" font-family="Helvetica" font-size="17" lengthAdjust="spacing" textLength="108" x="41" y="193.5698">gcp_resource</text></g><!--class phantom_resource--><g id="elem_phantom_resource"><rect codeLine="29" fill="#3D176E" height="39.7891" id="phantom_resource" rx="2.5" ry="2.5" style="stroke:#000D19;stroke-width:0.5;" width="198" x="192" y="167.79"/><ellipse cx="207" cy="187.6845" fill="#ADD1B2" rx="11" ry="11" style="stroke:#181818;stroke-width:1.0;"/><path d="M209.9688,193.3252 Q209.3906,193.622 208.75,193.7627 Q208.1094,193.9189 207.4063,193.9189 Q204.9063,193.9189 203.5781,192.2783 Q202.2656,190.622 202.2656,187.497 Q202.2656,184.372 203.5781,182.7158 Q204.9063,181.0595 207.4063,181.0595 Q208.1094,181.0595 208.75,181.2158 Q209.4063,181.372 209.9688,181.6689 L209.9688,184.3877 Q209.3438,183.8095 208.75,183.5439 Q208.1563,183.2627 207.5313,183.2627 Q206.1875,183.2627 205.5,184.3408 Q204.8125,185.4033 204.8125,187.497 Q204.8125,189.5908 205.5,190.6689 Q206.1875,191.7314 207.5313,191.7314 Q208.1563,191.7314 208.75,191.4658 Q209.3438,191.1845 209.9688,190.6064 L209.9688,193.3252 Z " fill="#000000"/><text fill="#D9B8FF" font-family="Helvetica" font-size="17" lengthAdjust="spacing" textLength="156" x="226" y="193.5698">phantom_resource</text></g><!--class resource--><g id="elem_resource"><rect codeLine="32" fill="#3D176E" height="39.7891" id="resource" rx="2.5" ry="2.5" style="stroke:#000D19;stroke-width:0.5;" width="113" x="129.5" y="7"/><ellipse cx="144.5" cy="26.8945" fill="#ADD1B2" rx="11" ry="11" style="stroke:#181818;stroke-width:1.0;"/><path d="M147.4688,32.5352 Q146.8906,32.832 146.25,32.9727 Q145.6094,33.1289 144.9063,33.1289 Q142.4063,33.1289 141.0781,31.4883 Q139.7656,29.832 139.7656,26.707 Q139.7656,23.582 141.0781,21.9258 Q142.4063,20.2695 144.9063,20.2695 Q145.6094,20.2695 146.25,20.4258 Q146.9063,20.582 147.4688,20.8789 L147.4688,23.5977 Q146.8438,23.0195 146.25,22.7539 Q145.6563,22.4727 145.0313,22.4727 Q143.6875,22.4727 143,23.5508 Q142.3125,24.6133 142.3125,26.707 Q142.3125,28.8008 143,29.8789 Q143.6875,30.9414 145.0313,30.9414 Q145.6563,30.9414 146.25,30.6758 Q146.8438,30.3945 147.4688,29.8164 L147.4688,32.5352 Z " fill="#000000"/><text fill="#D9B8FF" font-family="Helvetica" font-size="17" lengthAdjust="spacing" textLength="71" x="163.5" y="32.7798">resource</text></g><!--reverse link gcp_resource to gcp_region_quota--><g id="link_gcp_resource_gcp_region_quota"><path codeLine="35" d="M104.4024,222.8976 C124.3924,253.4176 153.39,297.69 173.41,328.25 " fill="none" id="gcp_resource-backto-gcp_region_quota" style="stroke:#FFAF37;stroke-width:2.0;"/><polygon fill="none" points="94.54,207.84,99.3832,226.1851,109.4217,219.6101,94.54,207.84" style="stroke:#FFAF37;stroke-width:2.0;"/></g><!--reverse link phantom_resource to gcp_region_quota--><g id="link_phantom_resource_gcp_region_quota"><path codeLine="36" d="M268.4022,222.8546 C248.2222,253.3746 218.92,297.69 198.71,328.25 " fill="none" id="phantom_resource-backto-gcp_region_quota" style="stroke:#FFAF37;stroke-width:2.0;"/><polygon fill="none" points="278.33,207.84,263.3974,219.5454,273.4071,226.1639,278.33,207.84" style="stroke:#FFAF37;stroke-width:2.0;"/></g><!--reverse link resource to gcp_resource--><g id="link_resource_gcp_resource"><path codeLine="37" d="M163.5976,62.1076 C143.6076,92.6276 114.61,136.9 94.59,167.46 " fill="none" id="resource-backto-gcp_resource" style="stroke:#FFAF37;stroke-width:2.0;"/><polygon fill="none" points="173.46,47.05,158.5783,58.8201,168.6168,65.3951,173.46,47.05" style="stroke:#FFAF37;stroke-width:2.0;"/></g><!--reverse link resource to phantom_resource--><g id="link_resource_phantom_resource"><path codeLine="38" d="M208.5978,62.0646 C228.7778,92.5846 258.08,136.9 278.29,167.46 " fill="none" id="resource-backto-phantom_resource" style="stroke:#FFAF37;stroke-width:2.0;"/><polygon fill="none" points="198.67,47.05,203.5929,65.3739,213.6026,58.7554,198.67,47.05" style="stroke:#FFAF37;stroke-width:2.0;"/></g><!--SRC=[XP1BJm9148Jl-oicyKm24WKIBqXYz4ACU2VDJi_kXDtfjQTNWe__heYQsHaUrwelLTLTMeqAwqQsgiPwXUmplxQk0OPQJPbfCwEAM5qO0sOuYiqxSd8Mc4EDwXwhLnIRGqmybpPVE_HUNGRMBUJhWgbrUXyl3Cv_M-Wae6OLU3yLORjg1OCnUh8Q6nEJSUZ5K0z6rvXWn1hv5-dt-temYP6pLIVl_YSMzWtL87pQd0IJcKd53tLovOu8HYQ7_lb7Dpw2rjOLwYhGdlQRs25tz4K9cZOxsa3bmnelo4YoRN2MN8MJiJQZW_33CJZBTwzJHTui6GjBRldIae1wpxBFZkUfvHn3lId12TK7lQxMIRZvwFLwIM6Mf1tX3lfxAVRYoEmB]--></g></svg>

<svg xmlns="http://www.w3.org/2000/svg" width="397" height="374" viewBox="0 0 397 374"><rect width="189" height="39.789" x="91.5" y="328.58" fill="#3D176E" rx="2.5" ry="2.5" style="stroke:#000d19;stroke-width:.5"/><circle cx="106.5" cy="348.474" r="11" fill="#ADD1B2" style="stroke:#181818;stroke-width:1"/><path d="M109.469 354.115q-.578.297-1.219.438-.64.156-1.344.156-2.5 0-3.828-1.64-1.312-1.657-1.312-4.782t1.312-4.781q1.328-1.656 3.828-1.656.703 0 1.344.156.656.156 1.219.453v2.719q-.625-.579-1.219-.844-.594-.281-1.219-.281-1.344 0-2.031 1.078-.687 1.062-.687 3.156t.687 3.172q.688 1.062 2.031 1.062.625 0 1.219-.265.594-.281 1.219-.86z"/><text x="125.5" y="354.36" fill="#D9B8FF" font-family="Helvetica" font-size="17" textLength="147">gcp_region_quota</text><rect width="150" height="39.789" x="7" y="167.79" fill="#3D176E" rx="2.5" ry="2.5" style="stroke:#000d19;stroke-width:.5"/><circle cx="22" cy="187.685" r="11" fill="#ADD1B2" style="stroke:#181818;stroke-width:1"/><path d="M24.969 193.325q-.578.297-1.219.438-.64.156-1.344.156-2.5 0-3.828-1.64-1.312-1.657-1.312-4.782t1.312-4.781q1.328-1.656 3.828-1.656.703 0 1.344.156.656.156 1.219.453v2.719q-.625-.578-1.219-.844-.594-.281-1.219-.281-1.343 0-2.031 1.078-.687 1.062-.687 3.156t.687 3.172q.688 1.062 2.031 1.062.625 0 1.219-.265.594-.281 1.219-.86z"/><text x="41" y="193.57" fill="#D9B8FF" font-family="Helvetica" font-size="17" textLength="108">gcp_resource</text><rect width="198" height="39.789" x="192" y="167.79" fill="#3D176E" rx="2.5" ry="2.5" style="stroke:#000d19;stroke-width:.5"/><circle cx="207" cy="187.685" r="11" fill="#ADD1B2" style="stroke:#181818;stroke-width:1"/><path d="M209.969 193.325q-.578.297-1.219.438-.64.156-1.344.156-2.5 0-3.828-1.64-1.312-1.657-1.312-4.782t1.312-4.781q1.328-1.656 3.828-1.656.703 0 1.344.156.656.156 1.219.453v2.719q-.625-.578-1.219-.844-.594-.281-1.219-.281-1.344 0-2.031 1.078-.687 1.062-.687 3.156t.687 3.172q.688 1.062 2.031 1.062.625 0 1.219-.265.594-.281 1.219-.86z"/><text x="226" y="193.57" fill="#D9B8FF" font-family="Helvetica" font-size="17" textLength="156">phantom_resource</text><rect width="113" height="39.789" x="129.5" y="7" fill="#3D176E" rx="2.5" ry="2.5" style="stroke:#000d19;stroke-width:.5"/><circle cx="144.5" cy="26.895" r="11" fill="#ADD1B2" style="stroke:#181818;stroke-width:1"/><path d="M147.469 32.535q-.578.297-1.219.438-.64.156-1.344.156-2.5 0-3.828-1.64-1.312-1.657-1.312-4.782t1.312-4.781q1.328-1.656 3.828-1.656.703 0 1.344.156.656.156 1.219.453v2.719q-.625-.578-1.219-.844-.594-.281-1.219-.281-1.344 0-2.031 1.078-.687 1.062-.687 3.156t.687 3.172q.688 1.062 2.031 1.062.625 0 1.219-.265.594-.281 1.219-.86z"/><text x="163.5" y="32.78" fill="#D9B8FF" font-family="Helvetica" font-size="17" textLength="71">resource</text><path fill="none" d="M104.402 222.898c19.99 30.52 48.988 74.792 69.008 105.352M94.54 207.84l4.843 18.345 10.039-6.575zm173.862 15.015c-20.18 30.52-49.482 74.835-69.692 105.395m79.62-120.41-14.933 11.705 10.01 6.619zM163.598 62.108C143.608 92.628 114.61 136.9 94.59 167.46m78.87-120.41-14.882 11.77 10.039 6.575zm35.138 15.015c20.18 30.52 49.482 74.835 69.692 105.395M198.67 47.05l4.923 18.324 10.01-6.619z" style="stroke:#ffaf37;stroke-width:2"/></svg>
